assets/img/icons/duotone-icons/Files/Import.svg

<?xml version="1.0" encoding="UTF-8"?>
<svg width="24px" height="24px" viewBox="0 0 24 24" version="1.1" xmlns="http://www.w3.org/2000/svg" xmlns:xlink="http://www.w3.org/1999/xlink">
    <!-- Generator: Sketch 52.2 (67145) - http://www.bohemiancoding.com/sketch -->
    <title>Stockholm-icons / Files / Import</title>
    <desc>Created with Sketch.</desc>
    <g id="Stockholm-icons-/-Files-/-Import" stroke="none" stroke-width="1" fill="none" fill-rule="evenodd">
        <rect id="bound" x="0" y="0" width="24" height="24"></rect>
        <rect id="Rectangle" fill="#335EEA" opacity="0.3" transform="translate(12.000000, 7.000000) rotate(-180.000000) translate(-12.000000, -7.000000) " x="11" y="1" width="2" height="12" rx="1"></rect>
        <path d="M17,8 C16.4477153,8 16,7.55228475 16,7 C16,6.44771525 16.4477153,6 17,6 L18,6 C20.209139,6 22,7.790861 22,10 L22,18 C22,20.209139 20.209139,22 18,22 L6,22 C3.790861,22 2,20.209139 2,18 L2,9.99305689 C2,7.7839179 3.790861,5.99305689 6,5.99305689 L7.00000482,5.99305689 C7.55228957,5.99305689 8.00000482,6.44077214 8.00000482,6.99305689 C8.00000482,7.54534164 7.55228957,7.99305689 7.00000482,7.99305689 L6,7.99305689 C4.8954305,7.99305689 4,8.88848739 4,9.99305689 L4,18 C4,19.1045695 4.8954305,20 6,20 L18,20 C19.1045695,20 20,19.1045695 20,18 L20,10 C20,8.8954305 19.1045695,8 18,8 L17,8 Z" id="Path-103" fill="#335EEA" opacity="0.3"></path>
        <path d="M14.2928932,10.2928932 C14.6834175,9.90236893 15.3165825,9.90236893 15.7071068,10.2928932 C16.0976311,10.6834175 16.0976311,11.3165825 15.7071068,11.7071068 L12.7071068,14.7071068 C12.3165825,15.0976311 11.6834175,15.0976311 11.2928932,14.7071068 L8.29289322,11.7071068 C7.90236893,11.3165825 7.90236893,10.6834175 8.29289322,10.2928932 C8.68341751,9.90236893 9.31658249,9.90236893 9.70710678,10.2928932 L12,12.5857864 L14.2928932,10.2928932 Z" id="Path-104" fill="#335EEA"></path>
    </g>
</svg>

<svg width="24" height="24" viewBox="0 0 24 24" xmlns="http://www.w3.org/2000/svg"><g fill="none" fill-rule="evenodd"><path d="M0 0h24v24H0z"/><rect fill="#335EEA" opacity=".3" transform="rotate(-180 12 7)" x="11" y="1" width="2" height="12" rx="1"/><path d="M17 8a1 1 0 010-2h1a4 4 0 014 4v8a4 4 0 01-4 4H6a4 4 0 01-4-4V9.993a4 4 0 014-4h1a1 1 0 110 2H6a2 2 0 00-2 2V18a2 2 0 002 2h12a2 2 0 002-2v-8a2 2 0 00-2-2h-1z" fill="#335EEA" opacity=".3"/><path d="M14.293 10.293a1 1 0 011.414 1.414l-3 3a1 1 0 01-1.414 0l-3-3a1 1 0 011.414-1.414L12 12.586l2.293-2.293z" fill="#335EEA"/></g></svg>
